X:1
T:Croft’s 136th, 66.66.68
T:William Croft, 1709
T:Croft’s 136th, 66.66.68
T:Public Domain
C:William Croft, 1709
Z:Public Domain
%%score ( 1 2 ) ( 3 4 )
L:1/8
M:none
K:C
V:1 treble 
V:2 treble 
V:3 bass 
V:4 bass 
V:1
 [EG]4 | [Gc]2 [FB]2 [Gc]2 [EG]2 | [FA]4 [DG]4 | (EF) [CG]2 [CE]2 ([B,D]C) | C4 [CE]4 | %5
 [A,^F]2 [A,D]2 [DG]2 (EF) | [GB]4 [^Fd]4 | [^FB]2 G2 [EA]2 [DF]2 | [B,G]4 [DB]4 | %9
 [Cc]2 [EG]2 [FA]4 [Gc]4 | [FB]2 (CD) [E^G]4 [EG]4 | [EA]2 [DB]2 [Cc]4 [CG]4 | [CE]2 (DC) C4 |] %13
V:2
 x4 | x8 | x8 | C2 x6 | C4 x4 | x6 A2 | x8 | x8 | x8 | x12 | x2 A2 x8 | x12 | x2 B,2 C4 |] %13
V:3
 [C,C]4 | [C,E]2 [D,D]2 [E,C]2 [C,C]2 | [F,C]4 [G,B,]4 | [A,C]2 [E,C]2 G,2 [G,,F,]2 | %4
 [C,E,]4 [C,G,]4 | [D,D]2 [C,^F,]2 [B,,G,]2 [A,,C]2 | [G,,D]4 [B,,B,]4 | %7
 [D,B,]2 [E,B,]2 [C,C]2 [D,A,]2 | G,4 G,4 | [E,G,]2 [C,C]2 [F,C]4 [E,C]4 | %10
 [D,D]2 [F,A,]2 [E,B,]4 [D,B,]4 | [C,A,]2 [B,,^G,]2 [A,,A,]4 [E,=G,]4 | G,2 [G,,F,]2 [C,E,]4 |] %13
V:4
 x4 | x8 | x8 | x4 G,2 x2 | x8 | x8 | x8 | x8 | G,4 G,4 | x12 | x12 | x12 | G,2 x6 |] %13

